src/svg/icons/grid.svg

<svg viewBox="0 0 20 20"><path d="M10 0C8.45 0 7.2 1.25 7.2 2.8S8.45 5.6 10 5.6s2.8-1.25 2.8-2.8S11.55 0 10 0zm0 3.6c-.44 0-.8-.36-.8-.8s.36-.8.8-.8.8.36.8.8-.36.8-.8.8zM17.2 0c-1.55 0-2.8 1.25-2.8 2.8s1.25 2.8 2.8 2.8S20 4.35 20 2.8 18.75 0 17.2 0zm0 3.6c-.44 0-.8-.36-.8-.8s.36-.8.8-.8.8.36.8.8-.36.8-.8.8zM10 7.2c-1.55 0-2.8 1.25-2.8 2.8s1.25 2.8 2.8 2.8 2.8-1.25 2.8-2.8-1.25-2.8-2.8-2.8zm0 3.6c-.44 0-.8-.36-.8-.8 0-.44.36-.8.8-.8.44 0 .8.36.8.8 0 .44-.36.8-.8.8zm0 3.6c-1.55 0-2.8 1.25-2.8 2.8S8.45 20 10 20s2.8-1.25 2.8-2.8-1.25-2.8-2.8-2.8zm0 3.6c-.44 0-.8-.36-.8-.8 0-.44.36-.8.8-.8.44 0 .8.36.8.8s-.36.8-.8.8zm7.2-10.8c-1.55 0-2.8 1.25-2.8 2.8s1.25 2.8 2.8 2.8S20 11.55 20 10s-1.25-2.8-2.8-2.8zm0 3.6c-.44 0-.8-.36-.8-.8 0-.44.36-.8.8-.8.44 0 .8.36.8.8 0 .44-.36.8-.8.8zm0 3.6c-1.55 0-2.8 1.25-2.8 2.8s1.25 2.8 2.8 2.8 2.8-1.25 2.8-2.8-1.25-2.8-2.8-2.8zm0 3.6c-.44 0-.8-.36-.8-.8 0-.44.36-.8.8-.8.44 0 .8.36.8.8s-.36.8-.8.8zM0 10c0 1.55 1.25 2.8 2.8 2.8s2.8-1.25 2.8-2.8-1.25-2.8-2.8-2.8S0 8.45 0 10zm2.8-.8c.44 0 .8.36.8.8 0 .44-.36.8-.8.8S2 10.44 2 10s.36-.8.8-.8zm0 5.2c-1.55 0-2.8 1.25-2.8 2.8C0 18.75 1.25 20 2.8 20s2.8-1.25 2.8-2.8-1.25-2.8-2.8-2.8zm0 3.6c-.44 0-.8-.36-.8-.8 0-.44.36-.8.8-.8s.8.36.8.8-.36.8-.8.8z"/></svg>

<?xml version="1.0" encoding="utf-8"?>
<!-- Generator: Adobe Illustrator 19.2.1, SVG Export Plug-In . SVG Version: 6.00 Build 0)  -->
<svg version="1.1" id="Calque_1" xmlns="http://www.w3.org/2000/svg" xmlns:xlink="http://www.w3.org/1999/xlink" x="0px" y="0px"
	 viewBox="0 0 20 20" enable-background="new 0 0 20 20" xml:space="preserve">
<path fill="#3A434C" d="M10,0C8.45,0,7.2,1.25,7.2,2.8S8.45,5.6,10,5.6s2.8-1.25,2.8-2.8S11.55,0,10,0z M10,3.6
	c-0.44,0-0.8-0.36-0.8-0.8S9.56,2,10,2s0.8,0.36,0.8,0.8S10.44,3.6,10,3.6z"/>
<path fill="#3A434C" d="M17.2,0c-1.55,0-2.8,1.25-2.8,2.8s1.25,2.8,2.8,2.8S20,4.35,20,2.8S18.75,0,17.2,0z M17.2,3.6
	c-0.44,0-0.8-0.36-0.8-0.8S16.76,2,17.2,2S18,2.36,18,2.8S17.64,3.6,17.2,3.6z"/>
<path fill="#3A434C" d="M10,7.2c-1.55,0-2.8,1.25-2.8,2.8s1.25,2.8,2.8,2.8s2.8-1.25,2.8-2.8S11.55,7.2,10,7.2z M10,10.8
	c-0.44,0-0.8-0.36-0.8-0.8c0-0.44,0.36-0.8,0.8-0.8c0.44,0,0.8,0.36,0.8,0.8C10.8,10.44,10.44,10.8,10,10.8z"/>
<path fill="#3A434C" d="M10,14.4c-1.55,0-2.8,1.25-2.8,2.8S8.45,20,10,20s2.8-1.25,2.8-2.8S11.55,14.4,10,14.4z M10,18
	c-0.44,0-0.8-0.36-0.8-0.8c0-0.44,0.36-0.8,0.8-0.8c0.44,0,0.8,0.36,0.8,0.8S10.44,18,10,18z"/>
<path fill="#3A434C" d="M17.2,7.2c-1.55,0-2.8,1.25-2.8,2.8s1.25,2.8,2.8,2.8S20,11.55,20,10S18.75,7.2,17.2,7.2z M17.2,10.8
	c-0.44,0-0.8-0.36-0.8-0.8c0-0.44,0.36-0.8,0.8-0.8c0.44,0,0.8,0.36,0.8,0.8C18,10.44,17.64,10.8,17.2,10.8z"/>
<path fill="#3A434C" d="M17.2,14.4c-1.55,0-2.8,1.25-2.8,2.8s1.25,2.8,2.8,2.8s2.8-1.25,2.8-2.8S18.75,14.4,17.2,14.4z M17.2,18
	c-0.44,0-0.8-0.36-0.8-0.8c0-0.44,0.36-0.8,0.8-0.8c0.44,0,0.8,0.36,0.8,0.8S17.64,18,17.2,18z"/>
<path fill="#3A434C" d="M0,10c0,1.55,1.25,2.8,2.8,2.8s2.8-1.25,2.8-2.8S4.35,7.2,2.8,7.2S0,8.45,0,10z M2.8,9.2
	c0.44,0,0.8,0.36,0.8,0.8c0,0.44-0.36,0.8-0.8,0.8S2,10.44,2,10S2.36,9.2,2.8,9.2z"/>
<path fill="#3A434C" d="M2.8,14.4c-1.55,0-2.8,1.25-2.8,2.8C0,18.75,1.25,20,2.8,20s2.8-1.25,2.8-2.8S4.35,14.4,2.8,14.4z M2.8,18
	C2.36,18,2,17.64,2,17.2c0-0.44,0.36-0.8,0.8-0.8s0.8,0.36,0.8,0.8S3.24,18,2.8,18z"/>
</svg>
